Sources/FrostedUI/Resources/Icons.xcassets/discord20.imageset/discord-20.svg

<svg width="20" height="20" viewBox="0 0 20 20" fill="none" xmlns="http://www.w3.org/2000/svg" data-fui-icon="true">
  <path
    d="M8.39954 3.54004C8.47529 3.67625 8.54612 3.81547 8.61536 3.95508C9.5343 3.85661 10.4611 3.85667 11.38 3.95508C11.4493 3.81525 11.5218 3.67649 11.5978 3.54004L11.8556 3.07617L12.3781 3.16504C13.4323 3.34434 14.4623 3.64486 15.4474 4.05957L15.8673 4.24414L16.0568 4.33105L16.174 4.50293C18.0753 7.29759 19.0289 10.4736 18.6788 14.125L18.6466 14.4561L18.379 14.6553C17.0864 15.6159 15.6383 16.3458 14.0988 16.8125L13.5929 16.9658L13.2784 16.541C12.9525 16.1013 12.6629 15.6356 12.4093 15.1504C11.6227 15.3413 10.8142 15.4394 10.0001 15.4395C9.1846 15.4395 8.37485 15.341 7.58704 15.1494C7.33339 15.6346 7.0452 16.1011 6.71985 16.541L6.40442 16.9668L5.89758 16.8125C4.35959 16.344 2.91345 15.6131 1.62122 14.6533L1.35266 14.4551L1.32141 14.1221C1.02326 10.9754 1.62553 7.77019 3.8175 4.50977L3.93567 4.33398L4.12708 4.24609C5.23857 3.73502 6.4123 3.37159 7.61731 3.16504L8.14075 3.0752L8.39954 3.54004ZM12.5197 5.0625L12.2921 5.59668L11.7179 5.50977C10.5782 5.33711 9.41817 5.33713 8.27844 5.50977L7.70422 5.59668L7.47668 5.0625C7.4317 4.95692 7.38235 4.85263 7.33313 4.74902C6.51482 4.92645 5.71601 5.18611 4.94836 5.52344C3.13525 8.29692 2.59695 10.9833 2.78821 13.6436C3.72353 14.3003 4.74185 14.8274 5.8175 15.207C5.85215 15.1539 5.8875 15.1007 5.92102 15.0469C5.68779 14.9335 5.45875 14.8112 5.23547 14.6787L4.25696 14.0986L5.1759 13.4277C5.28122 13.351 5.38705 13.271 5.49524 13.1875L5.85852 12.9062L6.27356 13.1025C7.43957 13.6538 8.71188 13.9395 10.0001 13.9395C11.2883 13.9394 12.5607 13.6537 13.7267 13.1025L14.1554 12.9004L14.5226 13.2012C14.6205 13.2814 14.715 13.3529 14.8048 13.4141L15.7784 14.0781L14.7648 14.6787C14.5405 14.8118 14.3097 14.934 14.0753 15.0479C14.1089 15.1017 14.1441 15.1549 14.1788 15.208C15.2556 14.8297 16.2743 14.3018 17.2101 13.6445C17.4313 10.5848 16.6323 7.91852 15.048 5.52148C14.2802 5.18372 13.481 4.92461 12.6622 4.74805C12.613 4.85171 12.5647 4.95681 12.5197 5.0625ZM7.34094 8.99805C8.14999 8.99808 8.79697 9.72403 8.78333 10.6094C8.76944 11.4948 8.1478 12.2146 7.34387 12.2148C6.55482 12.2148 5.90247 11.495 5.90247 10.6094C5.90263 9.72401 6.53186 8.99805 7.34094 8.99805ZM12.6593 8.99805C13.4696 8.99817 14.1115 9.72408 14.0978 10.6094C14.084 11.4949 13.4634 12.2147 12.6593 12.2148C11.869 12.2148 11.2198 11.495 11.2198 10.6094C11.22 9.72401 11.8489 8.99805 12.6593 8.99805Z"
    fill="currentColor"
  />
</svg>

<svg xmlns="http://www.w3.org/2000/svg" width="20" height="20" fill="none" data-fui-icon="true" viewBox="0 0 20 20"><path fill="currentColor" d="M8.4 3.54q.112.204.215.415a13 13 0 0 1 2.765 0q.104-.21.218-.415l.258-.464.522.089c1.054.18 2.084.48 3.07.895l.42.184.189.087.117.172c1.901 2.795 2.855 5.97 2.505 9.622l-.032.331-.268.2c-1.293.96-2.74 1.69-4.28 2.156l-.506.154-.315-.425q-.488-.661-.869-1.39a10.2 10.2 0 0 1-4.822-.002q-.38.73-.867 1.392l-.316.426-.506-.154a14 14 0 0 1-4.277-2.16l-.268-.198-.032-.333c-.298-3.147.305-6.352 2.496-9.612l.119-.176.191-.088a14 14 0 0 1 3.49-1.081l.524-.09zm4.12 1.523-.228.534-.574-.087c-1.14-.173-2.3-.173-3.44 0l-.574.087-.227-.535a9 9 0 0 0-.144-.313c-.818.177-1.617.437-2.385.774-1.813 2.774-2.351 5.46-2.16 8.12a12.5 12.5 0 0 0 3.03 1.564q.052-.08.103-.16a9 9 0 0 1-.686-.368l-.978-.58.919-.671q.157-.116.32-.24l.363-.282.415.196a8.72 8.72 0 0 0 7.453 0l.428-.202.368.301q.147.12.282.213l.973.664-1.013.6a9 9 0 0 1-.69.37l.104.16a12.5 12.5 0 0 0 3.031-1.563c.221-3.06-.578-5.726-2.162-8.124a12.4 12.4 0 0 0-2.386-.773 9 9 0 0 0-.142.314M7.34 8.998c.81 0 1.457.726 1.443 1.611-.014.886-.635 1.606-1.44 1.606-.788 0-1.44-.72-1.44-1.606 0-.885.629-1.611 1.438-1.611m5.32 0c.81 0 1.451.726 1.438 1.611-.014.886-.635 1.606-1.439 1.606-.79 0-1.44-.72-1.44-1.606.001-.885.63-1.611 1.44-1.611"/></svg>
